!!!OTL: 29. Deutschlands Herrlichkeit.
!!!COM: Volksweise
!!!ARE: Europa, Mitteleuropa, Deutschland
!!!SCT: B0029
!!!TXL: @@DE
!!!YEM: Copyright 1995, estate of Helmut Schaffrath.
**kern	**text
*ICvox	*
*Ivox	*
*M4/4	*
*met(c)	*
*clefG2	*
*k[b-e-a-]	*
*Es:	*
{8e-L	Es
8fJ	.
=1	=1
4g	iſt
4g	in
4a-	dei-
4g	-nen
=2	=2
8b-L	Lie-
8fJ	.
4f	-dern,
4r}	.
{8fL	mein
8gJ	.
=3	=3
4a-	Volk,
4a-	dir
4cc	pro-
8b-L	-phe-
8a-J	.
=4	=4
2g	-ʒeiht
4r}	.
{4e-	des
=5	=5
4cc	al-
4cc	-ten
4ee-	Bar-
8ddL	-ba-
8ccJ	.
=6	=6
8ccL	-roſ-
8b-J	.
4b-	-ſa
4r}	.
{4ee-	er-
=7	=7
4b-/	-neu-
8gL	-te
8b-J	.
4b-/	Herr-
8a-L	-lich-
8fJ	.
=8	=8
2e-	-keit:
4r}	.
{4e-	des
=9	=9
4cc	al-
4cc	-ten
4ee-	Bar-
8ddL	-ba-
8ccJ	.
=10	=10
8ccL	-roſ-
8b-J	.
4b-	-ſa
4r}	.
{4ee-	er-
=11	=11
4b-/	-neu-
8gL	-te
8b-J	.
4b-/	Herr-
8a-L	-lich-
8fJ	.
=12	=12
2e-	-keit:
4r}	.
==	==
!!!AGN: politisch, national, Vaterlands - Lied
!!!GTL: Vaterlandslieder und Heimathgrüße
!!!ONB: ESAC (Essen Associative Code) Database: BOEHME
!!!AMT: simple quadruple
!!!AIN: vox
!!!EED: Helmut Schaffrath
!!!EEV: 1.0
!!@@COMMENT:"Lied von Emil Quandt 1871 gedichtet"
!!@@END:
!!Text: Emil Quandt
!!!URL-scan: https://archive.org/details/BoehmeVtLieder1895/page/n47/mode/2up
!!!ENC: Anna Maria Matuszewska
!!!EEV: 2024/14/06
*-	*-
